packages/components/icon/src/assets/icons/save.svg

<svg width="24" height="24" viewBox="0 0 24 24" fill="none" xmlns="http://www.w3.org/2000/svg">
<path fill-rule="evenodd" clip-rule="evenodd" d="M12.4824 17.0795C12.3667 17.2386 12.2221 17.3182 12.0486 17.3182C11.875 17.3182 11.7231 17.2386 11.593 17.0795L7.23244 11.5258C7.14566 11.4101 7.10227 11.3089 7.10227 11.2221C7.10227 11.0486 7.23244 10.9618 7.49277 10.9618H10.595V3H13.4587V10.9618H16.561C16.6911 10.9618 16.7924 10.9871 16.8647 11.0377C16.937 11.0883 16.9731 11.1498 16.9731 11.2221C16.9731 11.3089 16.9298 11.4101 16.843 11.5258L12.4824 17.0795ZM19.5114 7.29545C19.7138 7.29545 19.8838 7.36415 20.0212 7.50155C20.1586 7.63895 20.2273 7.80888 20.2273 8.01136V19.4659C20.2273 19.6684 20.1586 19.8383 20.0212 19.9757C19.8838 20.1131 19.7138 20.1818 19.5114 20.1818H4.71591C4.52789 20.1818 4.36157 20.1131 4.21694 19.9757C4.07231 19.8383 4 19.6684 4 19.4659V8.01136C4 7.80888 4.07231 7.63895 4.21694 7.50155C4.36157 7.36415 4.52789 7.29545 4.71591 7.29545H9.25V9.20455H5.90909V18.2727H18.3182V9.20455H14.9773V7.29545H19.5114Z" fill="currentColor"/>
</svg>

<svg viewBox="0 0 24 24" fill="none" xmlns="http://www.w3.org/2000/svg"><path fill-rule="evenodd" clip-rule="evenodd" d="M12.482 17.08a.52.52 0 0 1-.433.238c-.174 0-.326-.08-.456-.239l-4.36-5.553c-.087-.116-.13-.217-.13-.304 0-.173.13-.26.39-.26h3.102V3h2.864v7.962h3.102c.13 0 .231.025.304.076.072.05.108.112.108.184 0 .087-.043.188-.13.304l-4.36 5.553Zm7.03-9.785c.202 0 .372.07.51.207a.692.692 0 0 1 .205.51v11.454a.692.692 0 0 1-.206.51.693.693 0 0 1-.51.206H4.716a.703.703 0 0 1-.5-.206.675.675 0 0 1-.216-.51V8.01c0-.202.072-.372.217-.51a.703.703 0 0 1 .499-.206H9.25v1.91H5.91v9.068h12.408V9.205h-3.34v-1.91h4.533Z" fill="currentColor"/></svg>
